X:1
T:Title
%%score ( 1 2 ) { 3 | 4 }
L:1/8
Q:1/4=125
M:3/4
K:G
V:1 treble nm="Grand Piano, Soprano"
V:2 treble 
V:3 bass nm="Choir Pad, Bass"
V:4 bass 
V:1
 [GB]2 [GB]2 [Fd]2 | [Ec]2 B2 A2 | [DG]2 [EA]2 E2 | [DF]2 [DG]4 | [FA]2 B2 ^c2 | %5
w: By~H.~Bemrose,~1889 * *|||||
 [Fd]2 [EG]2 [DF]2 | [^CE]2 D4 | [DG]2 [EA]4 | [EB]2 c2- [Fc]2 | [GB]2 A2 B2 | [EG]2 G2 F2 | %11
w: ||||||
 D2 [Dd]2 [Fc]2 | [GB]2 [EA]2 E2 | [DF]2 [DG]4- | [DG]4 z2 |] %15
w: ||||
V:2
 x6 | z2 D4 | x6 | x6 | z2 G4 | x6 | x6 | x6 | z2 E2 z2 | z2 E4 | z2 D4 | x6 | x6 | x6 | x6 |] %15
V:3
 G,2 G,4 | G,2 G,2 C2 | B,2 C2 A,2 | A,2 B,4 | D2 D2 A,2 | A,2 B,2 A,2 | G,2 F,4 | G,2 E,4 | %8
 ^G,2 A,4 | D2 C4 | B,2 A,4 | F,2 G,2 D2 | D2 C3 B, | A,2 B,4- | B,4 z2 |] %15
V:4
 z6 | z2 z2 F,2 | G,2 C,4 | D,2 G,4 | D,2 G,2 E,2 | D,2 G,2 z2 | A,,2 D,4 | B,,2 C,4 | B,,2 A,,4 | %9
 B,,2 C,4 | ^C,2 D,4 | C,2 B,,2 A,,2 | G,,2 C,4 | D,2 G,,4- | G,,4 z2 |] %15

